X:020
T: Paddy Whack
N: O'Farrell's Pocket Companion v.1 (Sky ed. p.24-25)
N: "Irish"
% I have slowed the playback speed down for parts 3 and 4 to accommodate the sixteenth-note
% runs.
M: 6/8
L: 1/8
R: jig
Q: 320
K: G
D| GBd gfg| edc BAG|GBd eag|fdd d>ef|
gag fdB |ceg dBG| GBd cAd| BGG G2 :|
P:2
d/c/|BBB ceg|dBG A2G|Bcd eag|fdd def|
gag fdB|cec dBG|GBB cAd |BGG G2 :|
P:3
[Q:280]
D|GBd Bdg|e/d/c/B/A/G/ AFD|dBB ecA|fdd d2g|
b/a/g/a/b/g/ a/g/f/g/a/f/|g/f/e/f/g/e/ dBG|
GBd cAF|BGG G2 :|
P:4
B/c/|dBB ecc|dc/B/A/G/ A2G|dBB ea/b/a/g/|fdd def|
gb/g/b/g/ fa/f/a/f/|eg/f/g/e/ dBG|GBd cAd| BGG G2 :|
